; generated by Slic3r 1.2.9 on 2019-06-10 at 11:41:41

; external perimeters extrusion width = 0.40mm
; perimeters extrusion width = 0.67mm
; infill extrusion width = 0.67mm
; solid infill extrusion width = 0.67mm
; top infill extrusion width = 0.67mm

M107
M190 S60 ; set bed temperature
M104 S200 ; set temperature
G28 ; home all axes
G1 Z5 F5000 ; lift nozzle

M109 S200 ; wait for temperature to be reached
G21 ; set units to millimeters
G90 ; use absolute coordinates
M82 ; use absolute distances for extrusion
G92 E0
G1 Z0.350 F7800.000
G1 E-5.00000 F2400.00000
G92 E0
G1 X90.483 Y95.616 F7800.000
G1 E5.00000 F2400.00000
G1 X91.956 Y94.654 E5.15998 F1800.000
G1 X94.796 Y93.623 E5.43470
G1 X96.487 Y93.421 E5.58962
G1 X97.269 Y93.375 E5.66084
G1 X104.041 Y93.385 E6.27658
G1 X121.756 Y94.333 E7.88974 F1800.000
G1 X122.779 Y94.468 E7.98359
G1 X124.587 Y94.853 E8.15165
G1 X125.904 Y95.281 E8.27758
G1 X127.593 Y96.032 E8.44564
G1 X128.792 Y96.725 E8.57158
G1 X130.288 Y97.811 E8.73964
G1 X131.317 Y98.738 E8.86558
G1 X132.554 Y100.111 E9.03364
G1 X133.368 Y101.232 E9.15956
G1 X134.292 Y102.833 E9.32763
G1 X134.855 Y104.098 E9.45355
G1 X135.426 Y105.855 E9.62161
G1 X135.714 Y107.210 E9.74757
G1 X135.907 Y109.049 E9.91563
G1 X135.907 Y110.433 E10.04154
G1 X135.714 Y112.271 E10.20960
G1 X135.426 Y113.626 E10.33556
G1 X134.855 Y115.384 E10.50363
G1 X134.292 Y116.649 E10.62955
G1 X133.368 Y118.250 E10.79761
G1 X132.554 Y119.370 E10.92354
G1 X131.317 Y120.744 E11.09160
G1 X130.288 Y121.671 E11.21753
G1 X129.754 Y122.058 E11.27751
G1 X128.792 Y122.757 E11.38560
G1 X127.593 Y123.449 E11.51154
G1 X125.904 Y124.201 E11.67960
G1 X124.587 Y124.629 E11.80553
G1 X122.779 Y125.013 E11.97359
G1 X121.977 Y125.133 E12.04734
G1 X105.148 Y126.600 E13.58341
G1 X104.573 Y126.625 E13.63576
G1 X96.383 Y126.625 E14.38047
G1 X95.765 Y126.596 E14.43671
G1 X93.976 Y126.428 E14.60014
G1 X91.649 Y125.767 E14.82004
G1 X90.005 Y124.952 E14.98694
G1 X88.171 Y123.606 E15.19375
G1 X86.850 Y122.231 E15.36714
G1 X85.652 Y120.502 E15.55843
G1 X84.798 Y118.716 E15.73845
G1 X84.220 Y116.823 E15.91844
G1 X83.924 Y114.820 E16.10252
G1 X83.924 Y112.886 E16.27838
G1 X84.220 Y110.883 E16.46246
G1 X84.354 Y110.212 E16.52475
G1 X86.685 Y101.081 E17.38166
G1 X87.531 Y99.138 E17.57429
G1 X88.531 Y97.582 E17.74249
G1 X90.440 Y95.658 E17.98896
G1 E12.98896 F2400.00000
G92 E0
G1 X91.884 Y97.762 F7800.000
G1 E5.00000 F2400.00000
G1 X93.750 Y96.543 E5.20265 F1800.000
G1 X94.632 Y96.223 E5.28799
G1 X97.266 Y95.910 E5.52921
G1 X98.220 Y96.022 E5.61649
G1 X100.367 Y96.811 E5.82449
G1 X100.589 Y96.811 E5.84470
G1 X102.736 Y96.022 E6.05271
G1 X103.690 Y95.910 E6.13998
G1 X104.462 Y96.002 E6.21073
G1 X106.324 Y96.223 E6.38121 F1800.000
G1 X107.206 Y96.543 E6.46655
G1 X109.432 Y97.997 E6.70824
G1 X110.037 Y98.606 E6.78634
G1 X111.087 Y100.241 E6.96307
G1 X111.660 Y100.318 E7.01563
G1 X112.003 Y100.010 E7.05751
G1 X113.842 Y98.673 E7.26429
G1 X114.211 Y98.460 E7.30300
G1 X116.288 Y97.536 E7.50977
G1 X116.693 Y97.404 E7.54848
G1 X118.918 Y96.931 E7.75525
G1 X119.341 Y96.887 E7.79397
G1 X121.615 Y96.887 E8.00074
G1 X122.038 Y96.931 E8.03945
G1 X124.263 Y97.404 E8.24622
G1 X124.667 Y97.536 E8.28493
G1 X126.745 Y98.460 E8.49171
G1 X127.114 Y98.673 E8.53042
G1 X128.953 Y100.010 E8.73719
G1 X129.270 Y100.295 E8.77591
G1 X130.791 Y101.985 E8.98267
G1 X131.041 Y102.329 E9.02138
G1 X131.478 Y103.085 E9.10071
G1 X132.179 Y104.298 E9.22816
G1 X132.352 Y104.687 E9.26687
G1 X133.054 Y106.850 E9.47364
G1 X133.143 Y107.267 E9.51236
G1 X133.381 Y109.528 E9.71913
G1 X133.381 Y109.954 E9.75784
G1 X133.143 Y112.215 E9.96461
G1 X133.054 Y112.632 E10.00332
G1 X132.352 Y114.794 E10.21010
G1 X132.178 Y115.183 E10.24882
G1 X131.042 Y117.153 E10.45558
G1 X130.791 Y117.497 E10.49429
G1 X129.270 Y119.187 E10.70106
G1 X128.953 Y119.472 E10.73977
G1 X127.114 Y120.808 E10.94655
G1 X126.745 Y121.021 E10.98526
G1 X124.668 Y121.946 E11.19203
G1 X124.263 Y122.078 E11.23075
G1 X122.038 Y122.551 E11.43752
G1 X121.615 Y122.595 E11.47623
G1 X119.341 Y122.595 E11.68300
G1 X118.918 Y122.551 E11.72171
G1 X116.693 Y122.078 E11.92848
G1 X116.288 Y121.946 E11.96720
G1 X114.211 Y121.021 E12.17397
G1 X113.842 Y120.808 E12.21268
G1 X112.960 Y120.168 E12.31183
G1 X112.494 Y120.209 E12.35441
G1 X110.693 Y122.084 E12.59081
G1 X110.126 Y122.499 E12.65468
G1 X107.832 Y123.637 E12.88751
G1 X107.113 Y123.842 E12.95549
G1 X104.574 Y124.079 E13.18738
G1 X103.819 Y124.009 E13.25632
G1 X101.364 Y123.306 E13.48852
G1 X100.623 Y122.941 E13.56362
G1 X100.332 Y122.941 E13.59008
G1 X99.592 Y123.306 E13.66518
G1 X97.137 Y124.009 E13.89737
G1 X96.382 Y124.079 E13.96632
G1 X93.842 Y123.842 E14.19821
G1 X93.123 Y123.637 E14.26619
G1 X90.830 Y122.499 E14.49902
G1 X90.263 Y122.084 E14.56289
G1 X88.474 Y120.221 E14.79773
G1 X88.104 Y119.688 E14.85674
G1 X86.978 Y117.334 E15.09401
G1 X86.800 Y116.750 E15.14950
G1 X86.416 Y114.151 E15.38843
G1 X86.416 Y113.555 E15.44263
G1 X86.800 Y110.955 E15.68156
G1 X86.978 Y110.372 E15.73705
G1 X88.104 Y108.018 E15.97432
G1 X88.474 Y107.485 E16.03333
G1 X88.930 Y107.010 E16.09312
G1 X89.016 Y106.720 E16.12066
G1 X88.689 Y104.979 E16.28174
G1 X88.689 Y104.222 E16.35057
G1 X89.185 Y101.583 E16.59475
G1 X89.475 Y100.854 E16.66612
G1 X90.919 Y98.606 E16.90905
G1 X91.524 Y97.997 E16.98715
G1 X91.834 Y97.795 E17.02074
G1 X92.225 Y98.285 F7800.000
G1 X94.031 Y97.106 E17.21682 F1800.000
G1 X94.778 Y96.835 E17.28903
G1 X97.267 Y96.539 E17.51698
G1 X98.073 Y96.634 E17.59082
G1 X100.367 Y97.477 E17.81299
G1 X100.589 Y97.477 E17.83321
G1 X102.883 Y96.634 E18.05538
G1 X103.689 Y96.539 E18.12922
G1 X106.178 Y96.835 E18.35717 F1800.000
G1 X106.925 Y97.106 E18.42938
G1 X109.035 Y98.484 E18.65850
G1 X109.547 Y98.999 E18.72458
G1 X110.998 Y101.258 E18.96874
G1 X111.614 Y101.308 E19.02495
G1 X112.129 Y100.737 E19.09484
G1 X112.396 Y100.496 E19.12760
G1 X114.183 Y99.198 E19.32842
G1 X114.495 Y99.018 E19.36117
G1 X116.513 Y98.120 E19.56199
G1 X116.855 Y98.008 E19.59475
G1 X119.015 Y97.549 E19.79556
G1 X119.374 Y97.512 E19.82832
G1 X121.582 Y97.512 E20.02913
G1 X121.940 Y97.549 E20.06189
G1 X124.101 Y98.008 E20.26270
G1 X124.443 Y98.120 E20.29546
G1 X126.461 Y99.018 E20.49628
G1 X126.773 Y99.198 E20.52904
G1 X128.560 Y100.496 E20.72985
G1 X128.827 Y100.737 E20.76261
G1 X130.305 Y102.378 E20.96342
G1 X130.517 Y102.670 E20.99618
G1 X130.937 Y103.397 E21.07253
G1 X131.621 Y104.583 E21.19700
G1 X131.767 Y104.912 E21.22975
G1 X132.450 Y107.012 E21.43057
G1 X132.525 Y107.364 E21.46333
G1 X132.756 Y109.561 E21.66415
G1 X132.756 Y109.921 E21.69690
G1 X132.525 Y112.117 E21.89771
G1 X132.450 Y112.470 E21.93047
G1 X131.767 Y114.570 E22.13130
G1 X131.621 Y114.899 E22.16405
G1 X130.517 Y116.812 E22.36486
G1 X130.305 Y117.103 E22.39762
G1 X128.827 Y118.744 E22.59843
G1 X128.560 Y118.986 E22.63119
G1 X126.773 Y120.284 E22.83201
G1 X126.461 Y120.464 E22.86477
G1 X124.443 Y121.362 E23.06558
G1 X124.101 Y121.473 E23.09834
G1 X121.940 Y121.933 E23.29915
G1 X121.582 Y121.970 E23.33191
G1 X119.374 Y121.970 E23.53272
G1 X119.015 Y121.933 E23.56548
G1 X116.855 Y121.473 E23.76630
G1 X116.513 Y121.362 E23.79905
G1 X114.495 Y120.464 E23.99987
G1 X114.183 Y120.284 E24.03263
G1 X112.821 Y119.294 E24.18568
G1 X112.303 Y119.382 E24.23350
G1 X111.997 Y119.824 E24.28240
G1 X110.279 Y121.612 E24.50779
G1 X109.800 Y121.964 E24.56183
G1 X107.606 Y123.052 E24.78452
G1 X106.998 Y123.225 E24.84204
G1 X104.574 Y123.452 E25.06340
G1 X103.935 Y123.392 E25.12174
G1 X101.590 Y122.721 E25.34354
G1 X101.038 Y122.449 E25.39954
G1 X100.684 Y122.187 E25.43956
G1 X100.272 Y122.187 E25.47698
G1 X99.918 Y122.449 E25.51700
G1 X99.366 Y122.721 E25.57300
G1 X97.021 Y123.392 E25.79480
G1 X96.382 Y123.452 E25.85314
G1 X93.958 Y123.225 E26.07450
G1 X93.350 Y123.052 E26.13202
G1 X91.156 Y121.964 E26.35471
G1 X90.676 Y121.612 E26.40875
G1 X88.959 Y119.824 E26.63414
G1 X88.647 Y119.373 E26.68407
G1 X87.562 Y117.107 E26.91254
G1 X87.411 Y116.613 E26.95949
G1 X87.041 Y114.105 E27.18998
G1 X87.041 Y113.601 E27.23584
G1 X87.411 Y111.093 E27.46633
G1 X87.562 Y110.599 E27.51328
G1 X88.647 Y108.333 E27.74175
G1 X88.959 Y107.882 E27.79168
G1 X89.603 Y107.211 E27.87619
G1 X89.690 Y106.921 E27.90373
G1 X89.314 Y104.921 E28.08878
G1 X89.314 Y104.281 E28.14701
G1 X89.788 Y101.758 E28.38042
G1 X90.033 Y101.141 E28.44080
G1 X91.409 Y98.999 E28.67224
G1 X91.921 Y98.484 E28.73832
G1 X92.175 Y98.318 E28.76590
G1 E23.76590 F2400.00000
G92 E0
G1 X111.380 Y102.503 F7800.000
G1 E5.00000 F2400.00000
G1 X112.571 Y101.180 E5.16188 F1800.000
G1 X112.790 Y100.983 E5.18868
G1 X114.524 Y99.723 E5.38355
G1 X114.779 Y99.576 E5.41035
G1 X116.737 Y98.704 E5.60521
G1 X117.017 Y98.613 E5.63201
G1 X119.113 Y98.167 E5.82687
G1 X119.406 Y98.136 E5.85367
G1 X121.549 Y98.136 E6.04853
G1 X121.843 Y98.167 E6.07533
G1 X123.939 Y98.613 E6.27019
G1 X124.219 Y98.704 E6.29699
G1 X126.177 Y99.576 E6.49185
G1 X126.432 Y99.723 E6.51865
G1 X128.166 Y100.983 E6.71351
G1 X128.385 Y101.180 E6.74032
G1 X129.819 Y102.772 E6.93517
G1 X129.992 Y103.011 E6.96197
G1 X130.395 Y103.710 E7.03534
G1 X131.063 Y104.867 E7.15683
G1 X131.183 Y105.136 E7.18363
G1 X131.846 Y107.174 E7.37849
G1 X131.907 Y107.462 E7.40530
G1 X132.131 Y109.594 E7.60016
G1 X132.131 Y109.888 E7.62696
G1 X131.907 Y112.019 E7.82181
G1 X131.846 Y112.308 E7.84862
G1 X131.183 Y114.346 E8.04349
G1 X131.063 Y114.615 E8.07029
G1 X129.992 Y116.471 E8.26514
G1 X129.819 Y116.709 E8.29194
G1 X128.385 Y118.302 E8.48680
G1 X128.166 Y118.499 E8.51360
G1 X126.432 Y119.759 E8.70847
G1 X126.177 Y119.906 E8.73527
G1 X124.219 Y120.778 E8.93013
G1 X123.939 Y120.869 E8.95693
G1 X121.843 Y121.314 E9.15179
G1 X121.549 Y121.345 E9.17859
G1 X119.406 Y121.345 E9.37345
G1 X119.113 Y121.314 E9.40025
G1 X117.017 Y120.869 E9.59511
G1 X116.737 Y120.778 E9.62191
G1 X114.779 Y119.906 E9.81677
G1 X114.524 Y119.759 E9.84357
G1 X112.600 Y118.361 E10.05983
G1 X112.032 Y118.505 E10.11308
G1 X111.767 Y119.058 E10.16886
G1 X111.511 Y119.428 E10.20973
G1 X109.866 Y121.140 E10.42566
G1 X109.474 Y121.428 E10.46988
G1 X107.380 Y122.466 E10.68243
G1 X106.882 Y122.608 E10.72949
G1 X104.574 Y122.824 E10.94031
G1 X104.051 Y122.776 E10.98804
G1 X101.816 Y122.136 E11.19945
G1 X101.364 Y121.913 E11.24527
G1 X100.684 Y121.410 E11.32218
G1 X100.272 Y121.410 E11.35960
G1 X99.592 Y121.913 E11.43651
G1 X99.140 Y122.136 E11.48233
G1 X96.905 Y122.776 E11.69373
G1 X96.382 Y122.824 E11.74147
G1 X94.074 Y122.608 E11.95229
G1 X93.576 Y122.466 E11.99936
G1 X91.482 Y121.428 E12.21190
G1 X91.090 Y121.140 E12.25612
G1 X89.445 Y119.428 E12.47205
G1 X89.189 Y119.058 E12.51291
G1 X88.146 Y116.879 E12.73256
G1 X88.022 Y116.475 E12.77098
G1 X87.666 Y114.059 E12.99303
G1 X87.666 Y113.647 E13.03055
G1 X88.022 Y111.231 E13.25261
G1 X88.146 Y110.827 E13.29102
G1 X89.189 Y108.648 E13.51068
G1 X89.445 Y108.278 E13.55153
G1 X90.277 Y107.412 E13.66076
G1 X90.363 Y107.122 E13.68831
G1 X89.939 Y104.863 E13.89732
G1 X89.939 Y104.339 E13.94497
G1 X90.391 Y101.933 E14.16758
G1 X90.592 Y101.428 E14.21699
G1 X91.899 Y99.393 E14.43693
G1 X92.318 Y98.971 E14.49100
G1 X94.312 Y97.669 E14.70755
G1 X94.923 Y97.447 E14.76663
G1 X97.267 Y97.168 E14.98130
G1 X97.927 Y97.246 E15.04172
G1 X100.150 Y98.063 E15.25704
G1 X100.294 Y98.156 E15.27261
G1 X100.662 Y98.156 E15.30610
G1 X100.806 Y98.063 E15.32167
G1 X103.029 Y97.246 E15.53700
G1 X103.689 Y97.168 E15.59742
G1 X106.033 Y97.447 E15.81208
G1 X106.644 Y97.669 E15.87116
G1 X108.638 Y98.971 E16.08772
G1 X109.057 Y99.393 E16.14178
G1 X110.364 Y101.428 E16.36172
G1 X110.565 Y101.933 E16.41113
G1 X110.633 Y102.293 E16.44447
G1 X111.322 Y102.487 E16.50958
G1 X111.140 Y103.956 F7800.000
G1 X111.489 Y103.352 E16.57310 F1800.000
G1 X111.624 Y103.166 E16.59394
G1 X113.014 Y101.622 E16.78285
G1 X113.184 Y101.469 E16.80369
G1 X114.865 Y100.248 E16.99260
G1 X115.063 Y100.133 E17.01344
G1 X116.961 Y99.288 E17.20235
G1 X117.179 Y99.217 E17.22319
G1 X119.211 Y98.785 E17.41210
G1 X119.439 Y98.761 E17.43294
G1 X121.517 Y98.761 E17.62184
G1 X121.745 Y98.785 E17.64269
G1 X123.777 Y99.217 E17.83159
G1 X123.995 Y99.288 E17.85244
G1 X125.893 Y100.133 E18.04135
G1 X126.091 Y100.248 E18.06219
G1 X127.772 Y101.469 E18.25110
G1 X127.942 Y101.622 E18.27194
G1 X129.332 Y103.166 E18.46085
G1 X129.467 Y103.352 E18.48169
G1 X130.506 Y105.151 E18.67059
G1 X130.599 Y105.360 E18.69144
G1 X131.241 Y107.336 E18.88034
G1 X131.289 Y107.560 E18.90119
G1 X131.506 Y109.626 E19.09010
G1 X131.506 Y109.855 E19.11094
G1 X131.289 Y111.922 E19.29984
G1 X131.241 Y112.146 E19.32069
G1 X130.599 Y114.122 E19.50960
G1 X130.506 Y114.331 E19.53044
G1 X129.467 Y116.130 E19.71934
G1 X129.332 Y116.316 E19.74019
G1 X127.942 Y117.860 E19.92909
G1 X127.772 Y118.013 E19.94994
G1 X126.091 Y119.234 E20.13885
G1 X125.893 Y119.349 E20.15969
G1 X123.995 Y120.194 E20.34860
G1 X123.777 Y120.265 E20.36944
G1 X121.745 Y120.696 E20.55835
G1 X121.517 Y120.720 E20.57919
G1 X119.439 Y120.720 E20.76809
G1 X119.211 Y120.696 E20.78894
G1 X117.179 Y120.265 E20.97784
G1 X116.961 Y120.194 E20.99869
G1 X115.063 Y119.349 E21.18759
G1 X114.865 Y119.234 E21.20844
G1 X113.184 Y118.013 E21.39734
G1 X113.014 Y117.860 E21.41819
G1 X112.524 Y117.315 E21.48478
G1 X111.863 Y117.411 E21.54547
G1 X111.225 Y118.743 E21.67981
G1 X111.026 Y119.031 E21.71159
G1 X109.453 Y120.668 E21.91808
G1 X109.148 Y120.892 E21.95247
G1 X107.154 Y121.881 E22.15487
G1 X106.767 Y121.991 E22.19148
G1 X104.574 Y122.197 E22.39177
G1 X104.167 Y122.159 E22.42889
G1 X102.042 Y121.550 E22.62991
G1 X101.690 Y121.377 E22.66554
G1 X100.684 Y120.633 E22.77934
G1 X100.272 Y120.633 E22.81676
G1 X99.266 Y121.377 E22.93056
G1 X98.914 Y121.550 E22.96620
G1 X96.789 Y122.159 E23.16721
G1 X96.382 Y122.197 E23.20433
G1 X94.189 Y121.991 E23.40463
G1 X93.802 Y121.881 E23.44123
G1 X91.808 Y120.892 E23.64363
G1 X91.503 Y120.668 E23.67803
G1 X89.930 Y119.031 E23.88450
G1 X89.731 Y118.743 E23.91628
G1 X88.730 Y116.652 E24.12713
G1 X88.634 Y116.338 E24.15701
G1 X88.291 Y114.013 E24.37062
G1 X88.291 Y113.692 E24.39981
G1 X88.634 Y111.368 E24.61342
G1 X88.730 Y111.054 E24.64330
G1 X89.731 Y108.963 E24.85415
G1 X89.930 Y108.675 E24.88593
G1 X90.976 Y107.586 E25.02321
G1 X91.046 Y107.226 E25.05662
G1 X90.994 Y107.094 E25.06952
G1 X90.564 Y104.805 E25.28135
G1 X90.564 Y104.397 E25.31841
G1 X90.994 Y102.107 E25.53024
G1 X91.150 Y101.715 E25.56867
G1 X92.389 Y99.786 E25.77711
G1 X92.715 Y99.458 E25.81916
G1 X94.593 Y98.232 E26.02314
G1 X95.068 Y98.059 E26.06910
G1 X97.268 Y97.798 E26.27049
G1 X97.781 Y97.858 E26.31748
G1 X99.869 Y98.625 E26.51978
G1 X100.294 Y98.899 E26.56572
G1 X100.662 Y98.899 E26.59922
G1 X101.087 Y98.625 E26.64516
G1 X103.175 Y97.858 E26.84746
G1 X103.688 Y97.798 E26.89446
G1 X105.888 Y98.059 E27.09584
G1 X106.363 Y98.232 E27.14180
G1 X108.241 Y99.458 E27.34578
G1 X108.567 Y99.786 E27.38783
G1 X109.806 Y101.715 E27.59627
G1 X109.962 Y102.107 E27.63470
G1 X110.282 Y103.810 E27.79224
G1 X111.080 Y103.946 E27.86588
G1 E22.86588 F2400.00000
G92 E0
G1 X110.607 Y106.614 F7800.000
G1 E5.00000 F2400.00000
G1 X110.941 Y105.584 E5.09840 F1800.000
G1 X111.008 Y105.435 E5.11329
G1 X112.014 Y103.692 E5.29624
G1 X112.110 Y103.560 E5.31113
G1 X113.456 Y102.065 E5.49408
G1 X113.578 Y101.955 E5.50897
G1 X115.206 Y100.772 E5.69192
G1 X115.347 Y100.691 E5.70680
G1 X117.185 Y99.872 E5.88975
G1 X117.341 Y99.822 E5.90464
G1 X119.309 Y99.403 E6.08759
G1 X119.472 Y99.386 E6.10248
G1 X121.484 Y99.386 E6.28543
G1 X121.647 Y99.403 E6.30032
G1 X123.615 Y99.822 E6.48327
G1 X123.771 Y99.872 E6.49816
G1 X125.609 Y100.691 E6.68111
G1 X125.750 Y100.772 E6.69600
G1 X127.378 Y101.955 E6.87895
G1 X127.500 Y102.065 E6.89384
G1 X128.846 Y103.560 E7.07678
G1 X128.942 Y103.692 E7.09167
G1 X129.313 Y104.334 E7.15909
G1 X129.948 Y105.435 E7.27462
G1 X130.015 Y105.584 E7.28951
G1 X130.637 Y107.498 E7.47246
G1 X130.671 Y107.658 E7.48735
G1 X130.881 Y109.659 E7.67030
G1 X130.881 Y109.823 E7.68519
G1 X130.671 Y111.824 E7.86813
G1 X130.637 Y111.984 E7.88303
G1 X130.015 Y113.897 E8.06598
G1 X129.948 Y114.047 E8.08087
G1 X128.942 Y115.789 E8.26381
G1 X128.846 Y115.922 E8.27870
