; generated by Slic3r 1.2.9 on 2019-06-11 at 17:01:52

; external perimeters extrusion width = 0.40mm
; perimeters extrusion width = 0.67mm
; infill extrusion width = 0.67mm
; solid infill extrusion width = 0.67mm
; top infill extrusion width = 0.67mm

M107
M190 S60 ; set bed temperature
M104 S200 ; set temperature
G28 ; home all axes
G1 Z5 F5000 ; lift nozzle

M109 S200 ; wait for temperature to be reached
G21 ; set units to millimeters
G90 ; use absolute coordinates
M82 ; use absolute distances for extrusion
G92 E0
G1 Z0.350 F7800.000
G1 E-5.00000 F2400.00000
G92 E0
G1 X90.305 Y95.616 F7800.000
G1 E5.00000 F2400.00000
G1 X91.778 Y94.654 E5.15998 F1800.000
G1 X94.618 Y93.623 E5.43470
G1 X96.309 Y93.421 E5.58962
G1 X97.091 Y93.375 E5.66084
G1 X103.863 Y93.385 E6.27658
G1 X121.578 Y94.333 E7.88974 F1800.000
G1 X122.601 Y94.468 E7.98359
G1 X124.409 Y94.853 E8.15165
G1 X125.726 Y95.281 E8.27758
G1 X127.415 Y96.032 E8.44564
G1 X128.614 Y96.725 E8.57158
G1 X130.110 Y97.811 E8.73964
G1 X131.139 Y98.738 E8.86558
G1 X132.376 Y100.111 E9.03364
G1 X133.190 Y101.232 E9.15955
G1 X134.114 Y102.833 E9.32763
G1 X134.398 Y103.383 E9.38400
G1 X135.722 Y106.269 E9.67270
G1 X136.325 Y109.031 E9.92973
G1 X136.325 Y110.451 E10.05885
G1 X135.722 Y113.213 E10.31588
G1 X134.398 Y116.098 E10.60457
G1 X134.114 Y116.649 E10.66095
G1 X133.190 Y118.250 E10.82901
G1 X132.376 Y119.370 E10.95493
G1 X131.139 Y120.744 E11.12299
G1 X130.110 Y121.671 E11.24893
G1 X129.576 Y122.058 E11.30890
G1 X128.614 Y122.757 E11.41700
G1 X127.415 Y123.449 E11.54293
G1 X125.727 Y124.201 E11.71099
G1 X124.409 Y124.629 E11.83692
G1 X122.601 Y125.013 E12.00499
G1 X121.799 Y125.133 E12.07874
G1 X104.970 Y126.600 E13.61480
G1 X104.395 Y126.625 E13.66715
G1 X96.205 Y126.625 E14.41187
G1 X95.587 Y126.596 E14.46810
G1 X93.798 Y126.428 E14.63153
G1 X91.472 Y125.767 E14.85143
G1 X89.827 Y124.952 E15.01833
G1 X87.993 Y123.606 E15.22514
G1 X86.672 Y122.231 E15.39853
G1 X85.474 Y120.502 E15.58982
G1 X84.620 Y118.716 E15.76984
G1 X84.042 Y116.823 E15.94983
G1 X83.746 Y114.820 E16.13392
G1 X83.746 Y112.886 E16.30977
G1 X84.042 Y110.883 E16.49386
G1 X84.176 Y110.212 E16.55615
G1 X86.507 Y101.081 E17.41305
G1 X87.353 Y99.138 E17.60568
G1 X88.353 Y97.582 E17.77388
G1 X90.262 Y95.658 E18.02035
G1 E13.02035 F2400.00000
G92 E0
G1 X91.706 Y97.762 F7800.000
G1 E5.00000 F2400.00000
G1 X93.572 Y96.543 E5.20265 F1800.000
G1 X94.454 Y96.223 E5.28799
G1 X97.088 Y95.910 E5.52921
G1 X98.042 Y96.022 E5.61649
G1 X100.189 Y96.811 E5.82449 F1800.000
G1 X100.411 Y96.811 E5.84471
G1 X102.558 Y96.022 E6.05271
G1 X103.512 Y95.910 E6.13998
G1 X106.146 Y96.223 E6.38121
G1 X107.028 Y96.543 E6.46655
G1 X109.254 Y97.997 E6.70824
G1 X109.859 Y98.606 E6.78634
G1 X110.909 Y100.241 E6.96307
G1 X111.482 Y100.318 E7.01563
G1 X111.825 Y100.010 E7.05751
G1 X113.664 Y98.673 E7.26429
G1 X114.033 Y98.460 E7.30300
G1 X116.110 Y97.536 E7.50977
G1 X116.515 Y97.404 E7.54848
G1 X118.740 Y96.931 E7.75525
G1 X119.163 Y96.887 E7.79397
G1 X121.437 Y96.887 E8.00074
G1 X121.860 Y96.931 E8.03945
G1 X124.085 Y97.404 E8.24622
G1 X124.490 Y97.536 E8.28493
G1 X126.567 Y98.460 E8.49171
G1 X126.936 Y98.673 E8.53042
G1 X128.775 Y100.010 E8.73719
G1 X129.092 Y100.295 E8.77591
G1 X130.613 Y101.985 E8.98267
G1 X130.864 Y102.329 E9.02138
G1 X132.001 Y104.298 E9.22816
G1 X132.174 Y104.687 E9.26687
G1 X132.667 Y106.205 E9.41193
G1 X132.744 Y106.331 E9.42538
G1 X133.762 Y107.348 E9.55626
G1 X133.762 Y112.133 E9.99134
G1 X132.744 Y113.151 E10.12222
G1 X132.667 Y113.277 E10.13567
G1 X132.174 Y114.794 E10.28074
G1 X132.001 Y115.183 E10.31945
G1 X130.864 Y117.153 E10.52621
G1 X130.613 Y117.497 E10.56492
G1 X129.092 Y119.187 E10.77169
G1 X128.775 Y119.472 E10.81041
G1 X126.936 Y120.808 E11.01719
G1 X126.567 Y121.021 E11.05590
G1 X124.490 Y121.946 E11.26267
G1 X124.085 Y122.078 E11.30138
G1 X121.860 Y122.551 E11.50815
G1 X121.437 Y122.595 E11.54686
G1 X119.163 Y122.595 E11.75363
G1 X118.740 Y122.551 E11.79235
G1 X116.515 Y122.078 E11.99912
G1 X116.110 Y121.946 E12.03783
G1 X114.033 Y121.021 E12.24460
G1 X113.664 Y120.808 E12.28331
G1 X112.782 Y120.168 E12.38247
G1 X112.316 Y120.209 E12.42504
G1 X110.515 Y122.084 E12.66144
G1 X109.948 Y122.499 E12.72531
G1 X107.655 Y123.637 E12.95814
G1 X106.935 Y123.842 E13.02612
G1 X104.396 Y124.079 E13.25801
G1 X103.641 Y124.009 E13.32696
G1 X101.186 Y123.306 E13.55915
G1 X100.446 Y122.941 E13.63425
G1 X100.154 Y122.941 E13.66071
G1 X99.414 Y123.306 E13.73581
G1 X96.959 Y124.009 E13.96800
G1 X96.204 Y124.079 E14.03695
G1 X93.665 Y123.842 E14.26884
G1 X92.945 Y123.637 E14.33683
G1 X90.652 Y122.499 E14.56965
G1 X90.085 Y122.084 E14.63352
G1 X88.296 Y120.221 E14.86836
G1 X87.927 Y119.688 E14.92738
G1 X86.800 Y117.334 E15.16465
G1 X86.622 Y116.750 E15.22013
G1 X86.238 Y114.151 E15.45906
G1 X86.238 Y113.555 E15.51326
G1 X86.622 Y110.955 E15.75219
G1 X86.800 Y110.372 E15.80768
G1 X87.927 Y108.018 E16.04495
G1 X88.296 Y107.485 E16.10397
G1 X88.752 Y107.010 E16.16375
G1 X88.838 Y106.720 E16.19130
G1 X88.511 Y104.979 E16.35237
G1 X88.511 Y104.222 E16.42120
G1 X89.007 Y101.583 E16.66538
G1 X89.297 Y100.854 E16.73675
G1 X90.741 Y98.606 E16.97969
G1 X91.346 Y97.997 E17.05778
G1 X91.656 Y97.795 E17.09137
G1 X92.047 Y98.285 F7800.000
G1 X93.853 Y97.106 E17.28745 F1800.000
G1 X94.600 Y96.835 E17.35967
G1 X97.089 Y96.539 E17.58761
G1 X97.895 Y96.634 E17.66146
G1 X100.189 Y97.477 E17.88362
G1 X100.411 Y97.477 E17.90384
G1 X102.705 Y96.634 E18.12601
G1 X103.511 Y96.539 E18.19986
G1 X106.000 Y96.835 E18.42780 F1800.000
G1 X106.747 Y97.106 E18.50001
G1 X108.857 Y98.484 E18.72914
G1 X109.369 Y98.999 E18.79522
G1 X110.820 Y101.258 E19.03937
G1 X111.436 Y101.308 E19.09559
G1 X111.951 Y100.737 E19.16548
G1 X112.218 Y100.496 E19.19823
G1 X114.005 Y99.198 E19.39905
G1 X114.317 Y99.018 E19.43181
G1 X116.335 Y98.120 E19.63262
G1 X116.677 Y98.008 E19.66538
G1 X118.837 Y97.549 E19.86619
G1 X119.196 Y97.512 E19.89895
G1 X121.404 Y97.512 E20.09977
G1 X121.762 Y97.549 E20.13252
G1 X123.923 Y98.008 E20.33334
G1 X124.265 Y98.120 E20.36609
G1 X126.283 Y99.018 E20.56691
G1 X126.595 Y99.198 E20.59967
G1 X128.382 Y100.496 E20.80048
G1 X128.649 Y100.737 E20.83324
G1 X130.127 Y102.378 E21.03406
G1 X130.339 Y102.670 E21.06681
G1 X131.443 Y104.583 E21.26763
G1 X131.590 Y104.912 E21.30038
G1 X132.119 Y106.540 E21.45611
G1 X132.196 Y106.666 E21.46956
G1 X133.137 Y107.607 E21.59054
G1 X133.137 Y111.874 E21.97856
G1 X132.196 Y112.815 E22.09954
G1 X132.119 Y112.941 E22.11299
G1 X131.590 Y114.570 E22.26872
G1 X131.443 Y114.899 E22.30148
G1 X130.339 Y116.812 E22.50228
G1 X130.127 Y117.103 E22.53504
G1 X128.649 Y118.744 E22.73585
G1 X128.382 Y118.986 E22.76861
G1 X126.595 Y120.284 E22.96943
G1 X126.283 Y120.464 E23.00219
G1 X124.265 Y121.362 E23.20300
G1 X123.923 Y121.473 E23.23576
G1 X121.762 Y121.933 E23.43658
G1 X121.404 Y121.970 E23.46933
G1 X119.196 Y121.970 E23.67015
G1 X118.837 Y121.933 E23.70290
G1 X116.677 Y121.473 E23.90372
G1 X116.335 Y121.362 E23.93648
G1 X114.317 Y120.464 E24.13729
G1 X114.005 Y120.284 E24.17005
G1 X112.643 Y119.294 E24.32311
G1 X112.125 Y119.382 E24.37093
G1 X111.819 Y119.824 E24.41982
G1 X110.101 Y121.612 E24.64521
G1 X109.622 Y121.964 E24.69926
G1 X107.428 Y123.052 E24.92194
G1 X106.820 Y123.225 E24.97947
G1 X104.396 Y123.452 E25.20082
G1 X103.757 Y123.392 E25.25916
G1 X101.412 Y122.721 E25.48096
G1 X100.860 Y122.449 E25.53696
G1 X100.506 Y122.187 E25.57698
G1 X100.094 Y122.187 E25.61441
G1 X99.740 Y122.449 E25.65443
G1 X99.188 Y122.721 E25.71042
G1 X96.843 Y123.392 E25.93222
G1 X96.204 Y123.452 E25.99056
G1 X93.780 Y123.225 E26.21192
G1 X93.172 Y123.052 E26.26945
G1 X90.978 Y121.964 E26.49213
G1 X90.498 Y121.612 E26.54618
G1 X88.781 Y119.824 E26.77156
G1 X88.469 Y119.373 E26.82150
G1 X87.384 Y117.107 E27.04996
G1 X87.233 Y116.613 E27.09691
G1 X86.863 Y114.105 E27.32740
G1 X86.863 Y113.601 E27.37326
G1 X87.233 Y111.093 E27.60376
G1 X87.384 Y110.599 E27.65071
G1 X88.469 Y108.333 E27.87917
G1 X88.781 Y107.882 E27.92911
G1 X89.425 Y107.211 E28.01361
G1 X89.512 Y106.921 E28.04116
G1 X89.136 Y104.921 E28.22620
G1 X89.136 Y104.281 E28.28444
G1 X89.610 Y101.758 E28.51784
G1 X89.855 Y101.141 E28.57823
G1 X91.231 Y98.999 E28.80966
G1 X91.743 Y98.484 E28.87574
G1 X91.997 Y98.318 E28.90333
G1 E23.90333 F2400.00000
G92 E0
G1 X111.202 Y102.503 F7800.000
G1 E5.00000 F2400.00000
G1 X112.393 Y101.180 E5.16188 F1800.000
G1 X112.612 Y100.983 E5.18868
G1 X114.346 Y99.723 E5.38355
G1 X114.601 Y99.576 E5.41035
G1 X116.559 Y98.704 E5.60521
G1 X116.839 Y98.613 E5.63201
G1 X118.935 Y98.167 E5.82687
G1 X119.229 Y98.136 E5.85367
G1 X121.371 Y98.136 E6.04853
G1 X121.665 Y98.167 E6.07533
G1 X123.761 Y98.613 E6.27019
G1 X124.041 Y98.704 E6.29699
G1 X125.999 Y99.576 E6.49185
G1 X126.254 Y99.723 E6.51865
G1 X127.988 Y100.983 E6.71351
G1 X128.207 Y101.180 E6.74032
G1 X129.641 Y102.772 E6.93517
G1 X129.814 Y103.011 E6.96197
G1 X130.885 Y104.867 E7.15683
G1 X131.005 Y105.136 E7.18363
G1 X131.571 Y106.876 E7.35002
G1 X131.648 Y107.002 E7.36347
G1 X132.512 Y107.866 E7.47456
G1 X132.512 Y111.616 E7.81550
G1 X131.648 Y112.480 E7.92659
G1 X131.571 Y112.606 E7.94004
G1 X131.005 Y114.346 E8.10643
G1 X130.885 Y114.615 E8.13323
G1 X129.814 Y116.471 E8.32809
G1 X129.641 Y116.709 E8.35489
G1 X128.207 Y118.302 E8.54974
G1 X127.988 Y118.499 E8.57655
G1 X126.254 Y119.759 E8.77141
G1 X125.999 Y119.906 E8.79821
G1 X124.041 Y120.778 E8.99307
G1 X123.761 Y120.869 E9.01987
G1 X121.665 Y121.314 E9.21473
G1 X121.371 Y121.345 E9.24154
G1 X119.229 Y121.345 E9.43639
G1 X118.935 Y121.314 E9.46319
G1 X116.839 Y120.869 E9.65806
G1 X116.559 Y120.778 E9.68486
G1 X114.601 Y119.906 E9.87972
G1 X114.346 Y119.759 E9.90652
G1 X112.422 Y118.361 E10.12277
G1 X111.854 Y118.505 E10.17602
G1 X111.589 Y119.058 E10.23181
G1 X111.333 Y119.428 E10.27267
G1 X109.688 Y121.140 E10.48861
G1 X109.296 Y121.428 E10.53283
G1 X107.202 Y122.466 E10.74537
G1 X106.704 Y122.608 E10.79244
G1 X104.396 Y122.824 E11.00326
G1 X103.873 Y122.776 E11.05099
G1 X101.638 Y122.136 E11.26240
G1 X101.186 Y121.913 E11.30822
G1 X100.506 Y121.410 E11.38512
G1 X100.094 Y121.410 E11.42255
G1 X99.414 Y121.913 E11.49946
G1 X98.962 Y122.136 E11.54527
G1 X96.727 Y122.776 E11.75668
G1 X96.204 Y122.824 E11.80441
G1 X93.896 Y122.608 E12.01524
G1 X93.398 Y122.466 E12.06230
G1 X91.304 Y121.428 E12.27485
G1 X90.912 Y121.140 E12.31906
G1 X89.267 Y119.427 E12.53500
G1 X89.011 Y119.058 E12.57585
G1 X87.968 Y116.879 E12.79551
G1 X87.844 Y116.475 E12.83392
G1 X87.488 Y114.059 E13.05597
G1 X87.488 Y113.647 E13.09350
G1 X87.844 Y111.231 E13.31555
G1 X87.968 Y110.827 E13.35397
G1 X89.011 Y108.648 E13.57362
G1 X89.267 Y108.278 E13.61448
G1 X90.099 Y107.412 E13.72371
G1 X90.185 Y107.122 E13.75125
G1 X89.761 Y104.863 E13.96026
G1 X89.761 Y104.339 E14.00791
G1 X90.213 Y101.933 E14.23053
G1 X90.414 Y101.428 E14.27994
G1 X91.721 Y99.393 E14.49988
G1 X92.140 Y98.971 E14.55394
G1 X94.134 Y97.669 E14.77049
G1 X94.745 Y97.447 E14.82958
G1 X97.089 Y97.168 E15.04424
G1 X97.749 Y97.246 E15.10466
G1 X99.972 Y98.063 E15.31998
G1 X100.116 Y98.156 E15.33555
G1 X100.484 Y98.156 E15.36905
G1 X100.628 Y98.063 E15.38462
G1 X102.851 Y97.246 E15.59994
G1 X103.511 Y97.168 E15.66036
G1 X105.855 Y97.447 E15.87503
G1 X106.466 Y97.669 E15.93411
G1 X108.460 Y98.971 E16.15066
G1 X108.879 Y99.393 E16.20473
G1 X110.186 Y101.428 E16.42467
G1 X110.387 Y101.933 E16.47408
G1 X110.455 Y102.293 E16.50742
G1 X111.144 Y102.487 E16.57253
G1 X110.962 Y103.956 F7800.000
G1 X111.311 Y103.352 E16.63604 F1800.000
G1 X111.446 Y103.166 E16.65689
G1 X112.836 Y101.622 E16.84579
G1 X113.006 Y101.469 E16.86664
G1 X114.687 Y100.248 E17.05554
G1 X114.885 Y100.133 E17.07639
G1 X116.783 Y99.288 E17.26529
G1 X117.001 Y99.217 E17.28614
G1 X119.033 Y98.785 E17.47504
G1 X119.261 Y98.761 E17.49589
G1 X121.339 Y98.761 E17.68479
G1 X121.567 Y98.785 E17.70563
G1 X123.599 Y99.217 E17.89454
G1 X123.817 Y99.288 E17.91538
G1 X125.715 Y100.133 E18.10429
G1 X125.913 Y100.248 E18.12514
G1 X127.594 Y101.469 E18.31404
G1 X127.764 Y101.622 E18.33489
G1 X129.154 Y103.166 E18.52379
G1 X129.289 Y103.352 E18.54463
G1 X130.328 Y105.151 E18.73354
G1 X130.421 Y105.360 E18.75438
G1 X131.023 Y107.212 E18.93143
G1 X131.100 Y107.338 E18.94488
G1 X131.887 Y108.125 E19.04608
G1 X131.887 Y111.357 E19.33995
G1 X131.100 Y112.144 E19.44115
G1 X131.023 Y112.270 E19.45460
G1 X130.421 Y114.122 E19.63165
G1 X130.328 Y114.331 E19.65249
G1 X129.289 Y116.130 E19.84139
G1 X129.154 Y116.316 E19.86224
G1 X127.764 Y117.860 E20.05114
G1 X127.594 Y118.013 E20.07198
G1 X126.968 Y118.468 E20.14238
G1 X125.913 Y119.234 E20.26089
G1 X125.715 Y119.349 E20.28174
G1 X123.817 Y120.194 E20.47064
G1 X123.599 Y120.265 E20.49149
G1 X121.567 Y120.696 E20.68039
G1 X121.339 Y120.720 E20.70124
G1 X119.261 Y120.720 E20.89014
G1 X119.033 Y120.696 E20.91099
G1 X117.001 Y120.265 E21.09989
G1 X116.783 Y120.194 E21.12074
G1 X114.885 Y119.349 E21.30964
G1 X114.687 Y119.234 E21.33049
G1 X113.006 Y118.013 E21.51939
G1 X112.836 Y117.860 E21.54024
G1 X112.346 Y117.315 E21.60683
G1 X111.685 Y117.411 E21.66752
G1 X111.047 Y118.743 E21.80186
G1 X110.848 Y119.031 E21.83364
G1 X109.275 Y120.668 E22.04013
G1 X108.970 Y120.892 E22.07452
G1 X106.976 Y121.881 E22.27692
G1 X106.589 Y121.991 E22.31352
G1 X104.396 Y122.197 E22.51381
G1 X103.989 Y122.159 E22.55094
G1 X101.864 Y121.550 E22.75195
G1 X101.512 Y121.377 E22.78759
G1 X100.506 Y120.633 E22.90139
G1 X100.094 Y120.633 E22.93881
G1 X99.088 Y121.377 E23.05261
G1 X98.736 Y121.550 E23.08824
G1 X96.611 Y122.159 E23.28926
G1 X96.204 Y122.197 E23.32638
G1 X94.011 Y121.991 E23.52668
G1 X93.624 Y121.881 E23.56328
G1 X91.630 Y120.892 E23.76568
G1 X91.325 Y120.668 E23.80007
G1 X89.752 Y119.031 E24.00655
G1 X89.553 Y118.743 E24.03833
G1 X88.552 Y116.652 E24.24917
G1 X88.456 Y116.338 E24.27905
G1 X88.113 Y114.013 E24.49267
G1 X88.113 Y113.692 E24.52185
G1 X88.456 Y111.368 E24.73547
G1 X88.552 Y111.054 E24.76535
G1 X89.553 Y108.963 E24.97620
G1 X89.752 Y108.675 E25.00797
G1 X90.798 Y107.586 E25.14525
G1 X90.868 Y107.226 E25.17866
G1 X90.816 Y107.094 E25.19156
G1 X90.386 Y104.805 E25.40340
G1 X90.386 Y104.397 E25.44046
G1 X90.816 Y102.107 E25.65229
G1 X90.972 Y101.715 E25.69072
G1 X92.211 Y99.786 E25.89916
G1 X92.537 Y99.458 E25.94121
G1 X94.415 Y98.232 E26.14519
G1 X94.890 Y98.059 E26.19115
G1 X97.090 Y97.798 E26.39254
G1 X97.603 Y97.858 E26.43953
G1 X99.691 Y98.625 E26.64183
G1 X100.116 Y98.899 E26.68777
G1 X100.484 Y98.899 E26.72127
G1 X100.909 Y98.625 E26.76721
G1 X102.997 Y97.858 E26.96951
G1 X103.510 Y97.798 E27.01651
G1 X105.710 Y98.059 E27.21789
G1 X106.185 Y98.232 E27.26385
G1 X108.063 Y99.458 E27.46783
G1 X108.389 Y99.786 E27.50988
G1 X109.628 Y101.715 E27.71832
G1 X109.784 Y102.107 E27.75675
G1 X110.104 Y103.810 E27.91429
G1 X110.902 Y103.946 E27.98793
G1 E22.98793 F2400.00000
G92 E0
G1 X110.429 Y106.614 F7800.000
G1 E5.00000 F2400.00000
G1 X110.763 Y105.584 E5.09840 F1800.000
G1 X110.830 Y105.435 E5.11329
G1 X111.836 Y103.692 E5.29624
G1 X111.932 Y103.560 E5.31113
G1 X113.278 Y102.065 E5.49408
G1 X113.400 Y101.955 E5.50897
G1 X115.028 Y100.772 E5.69192
G1 X115.169 Y100.691 E5.70680
G1 X117.007 Y99.872 E5.88975
G1 X117.163 Y99.822 E5.90464
G1 X119.131 Y99.403 E6.08759
G1 X119.294 Y99.386 E6.10248
G1 X121.306 Y99.386 E6.28543
G1 X121.469 Y99.403 E6.30032
G1 X123.437 Y99.822 E6.48327
G1 X123.593 Y99.872 E6.49815
G1 X125.431 Y100.691 E6.68111
G1 X125.572 Y100.772 E6.69600
G1 X127.200 Y101.955 E6.87895
G1 X127.322 Y102.065 E6.89384
G1 X128.668 Y103.560 E7.07678
G1 X128.764 Y103.692 E7.09167
G1 X129.770 Y105.435 E7.27462
G1 X129.837 Y105.584 E7.28951
G1 X130.475 Y107.548 E7.47722
G1 X130.552 Y107.674 E7.49067
G1 X131.262 Y108.384 E7.58197
G1 X131.262 Y111.098 E7.82877
G1 X130.552 Y111.808 E7.92007
G1 X130.475 Y111.934 E7.93352
G1 X129.837 Y113.897 E8.12124
G1 X129.770 Y114.047 E8.13613
G1 X128.764 Y115.789 E8.31907
G1 X128.668 Y115.922 E8.33396
G1 X127.322 Y117.417 E8.51691
G1 X127.200 Y117.527 E8.53180
G1 X126.600 Y117.962 E8.59922
G1 X125.572 Y118.709 E8.71475
G1 X125.431 Y118.791 E8.72964
G1 X123.593 Y119.609 E8.91259
